X:1
T:Widmung
T:Friedrich Rückert (1788–1866)
T:Robert Schumann (1810–1856) Op. 25, № 1.
T:You my soul, you my heart, you my bliss, o you my pain, you the world in which I live; you my heaven, in which I float, o you my grave, into which I eternally cast my grief. You are rest, you are peace, you are bestowed upon me from heaven. That you love me makes me worthy of you; your gaze transfigures me; you raise me lovingly above myself, my good spirit, my better self!
T:Tu mia anima, tu mio cuore, Tu mia beatitudine, o tu mio dolore, Tu il mondo in cui vivo; Tu il mio paradiso, in cui galleggio, o mio sepolcro nel quale dimora il mio affanno per l'eternità. Sei riposo, sei pace, tu  mi sei stata concessa dal cielo. Che tu mi ami mi rende degno di te; il tuo sguardo mi trasfigura; Tu innalzi amorevolmente sopra di me, il mio buon spirito, il mio io migliore!
T:by Mutopia-2018/01/17-2210
T:by Mutopia-2018/01/17-2210
T:by Mutopia-2018/01/17-2210
T:by Mutopia-2018/01/17-2210
T:by Mutopia-2018/01/17-2210
C:Robert Schumann
Z:Friedrich Rückert
Z:by Mutopia-2018/01/17-2210
%%score 1 { ( 2 6 ) | ( 3 4 5 ) }
L:1/8
Q:1/4=120
M:3/2
K:F
V:1 treble nm="Voice"
V:2 treble nm="Piano"
V:6 treble 
V:3 bass 
V:4 bass 
V:5 bass 
V:1
"^Animato" z12 | A2 A A c3!>(! F F2 G2!>)! | A4 z4 F2 FF | d4- d2 c2 B2 A2 | G4 z4 !>!G2 E C | %5
w: |Du mei ne See le, du mein|Herz, du mei ne|Wonn’, * O du mein|Schmerz, du mei ne|
 F4- F2 F2 B3 B | B4!>(! A2 A2 !>!c3!>)! F | B4- B2 B2 _e3 e | _e4 d2 c2 B2 A2 | G4 z2 G2 A2 B2 | %10
w: Welt, * in der ich|le be, mein Him mel|du, * da rein ich|schwe be, O du mein|Grab, in das hin|
 c2 F2 F6 B2 |!p! A2 A2{/A} G4- G2 A2 | F4 z4 z4 |[K:Db] F8 E2 F2 | G8 F4 | E8- E2 F2 | D4 A,4 z4 | %17
w: ab ich e wig|mei nen Kum\- * mer|gab.|Du bist die|Ruh’, du|bist _ der|Frie\- den,|
 F8 E2 F2 | G8 F4 | (E8"^" !turn!F3) _D | F4 E2 z2 E2 C A, |!<(! D4 z2 D2 G3 G!<)! | %22
w: du bist vom|Him\-- mel|mir _ be\-|schie\- den. Daß du mich|liebst, macht mich mir|
 (G4 F2) F2 A3 D | G6 G2 _c3 c | (_c4 B2) B2 B2 B2 |[K:F] B4-"^rit." B2 B2 c3 G | A4 z4 A4 | %27
w: wert, * dein Blick hat|mich vor mir ver\-|klärt, * du hebst mich|lie- * bend ü\- ber|mich, mein|
 A3 D D2"^ritardando" D2 E2 F2 | G4 z4 z4 | A2 A A c3!>(! F F2!>)! G2 | A4 z4 F2 F F | %31
w: gu\- ter Geist, mein beß’\- res|Ich!|Du mei ne See\- le, du mein|Herz, du mei ne|
 d4- d2 c2 B2 A2 | G4 z4 !>!G2 E C | F4- F2 F2 B3 B | B4 A2 A2 A3 D | G4- G2 G2 c2 c2 | %36
w: Wonn’, _ o du mein|Schmerz, du mei ne|Welt, _ in der ich|le\- be, mein Him\- mel|du, * da\- rein ich|
 c4 B2 d2 B2 G2 | F2 F2 d4- d2 c2 | F4 z4 z4 | z12 | z12 | z12 | z12 | z12 |] %44
w: schwe be, mein gu\- ter|Geist, mein beß’\- _ res|Ich!||||||
V:2
!mf! (A,CF>A) (AFCA,) (A,CG,C) | (A,CF>A) (AFCA,) (A,CG,C) | (A,CF>A) (AFCA,) (A,CA,F) | %3
 (DFB>d) (dDcD) (BDAD) | G4 z4 (!>!G2 EC) | F8 B4 | B4 A2 z2 (!>!c2 AF) | %7
 B4- B2!<(! B2 _e2 e2!<)! | _e4 [FBd]2 (c2 B2 A2) | G4- G2 (G2 c2 B2) | B4 D4- F2 B2 | %11
 A4 G4- G2 A2 |!>(! F12!>)! | %13
[K:Db]!p! (3[A,DF]2 [A,DF]2 [A,DF]2 (3[A,DF]2 [A,DF]2 [A,DF]2 (3[A,DF]2 [A,DF]2 [A,DF]2 | %14
 (3[G,DG]2 [G,DG]2 [G,DG]2 (3[G,DG]2 [G,DG]2 [G,DG]2 (3[G,DF]2 [G,DF]2 [G,DF]2 | %15
 (3[B,DE]2 [B,DE]2 [B,DE]2 (3[B,DE]2 [B,DE]2 [B,DE]2 (3[G,A,CE]2 [G,A,CE]2 [G,A,CE]2 | %16
 (3[F,A,D]2 [F,A,D]2 [F,A,D]2 (3[F,A,]2 [F,A,]2 [F,A,]2 (3[F,A,]2 [F,A,]2 [F,A,]2 | %17
!<(! (3[A,DF]2 [A,DF]2 [A,DF]2 (3[A,EF]2 [A,EF]2 [A,EF]2 (3[A,=DF]2 [A,DF]2 [A,DF]2 | %18
 (3[G,FG]2 [G,FG]2 [G,FG]2 (3[G,EG]2 [G,EG]2 [G,EG]2 (3[A,_DF]2 [A,DF]2 [A,DF]2!<)! | %19
 (3[B,DE]2 [B,DE]2 [B,DE]2 (3[B,DE]2 [B,DE]2 [B,DE]2 (3[A,CE]2 [A,CE]2 [A,C]2 | %20
 F4 E4 (3[A,CE]2 [A,CE]2 [A,CE]2 | %21
!<(! (3[A,D]2 [A,D]2 [A,D]2 (3[A,D]2 [A,D]2 [A,D]2 (3[G,A,CG]2 [G,A,CG]2 [G,A,CG]2!<)! | %22
 (3[G,A,CG]2 [G,A,CG]2 [G,A,CG]2 (3[A,DF]2 [A,DF]2 [A,DF]2 (3[DF]2 [DF]2 [DF]2 | %23
!<(! (3[DG]2 [DG]2 [DG]2 (3[DG]2 [DG]2 [DG]2 (3[CDF_c]2 [CDFc]2 [CDFc]2!<)! | %24
 (3[_CDF_c]2 [CDFc]2 [CDFc]2!>(! (3[DGB]2 [DGB]2 [DGB]2 (3[DGB]2 [DGB]2 [DGB]2!>)! | %25
[K:F]!p! B4- B2 B2 B3 G |{/G} [GA]8 [FA]4 | A7/2 D/ D2 (D2 E2 F2) | G8 z4 | %29
!f! (A,CF>A) (AFCA,) (A,CG,C) | (A,CF>A) (AFCA,) (A,CA,F) | (DFB>d) dDcD BDAD | G8 (!>!G2 EC) | %33
 F8 B4 | B4 A2 z2 !>!A2 =FD | G6 G2 c2 c2 | B4 [DGB]2!>(! (.[DAd]2 .[DGB]2 .[_DG]2)!>)! | %37
!<(! (.[CF]2 .[=B,DF]2)!<)!!>(! F6 E2!>)! | F12 | F4!<(! (E2 F2!<)!!>(! =A3 G)!>)! | F12 | %41
 F4!<(! (E2"^rit." F2!<)!!>(! =A3 G)!>)! | F12 | z4 [A,F]2 z2 z4 |] %44
V:3
!ped! (C,!<(!F,A,>C) (CA,F,!ped-up!!<)!C,)!ped! (C,F,C,F,)!ped-up! | %1
!ped! ((C,!<(!F,A,>C)) ((CA,F,!ped-up!!<)!C,))!ped! ((C,F,C,F,))!ped-up! | %2
!ped! (((C,!<(!F,A,>C))) (((CA,F,!ped-up!!<)!C,)))!ped! (((C,F,C,F,)))!ped-up! | %3
!ped! F,B,D>F FF,EF, D!ped-up!F,CF, | (F,B,[I:staff -1]D>G) (GE[I:staff +1]B,F,) E,G, z2 | %5
 (F,A,[I:staff -1]C>F) (FC[I:staff +1]A,F,)!ped![I:staff -1] (EC[I:staff +1]B,E,)!ped-up! | %6
!ped![I:staff -1] (EC[I:staff +1]B,E,)[I:staff -1] (FC[I:staff +1]A,!ped-up!F,)[I:staff -1] (AF[I:staff +1]CA,) | %7
 B,D[I:staff -1]F>B BF[I:staff +1]DB,!ped![I:staff -1] AF[I:staff +1]_EA,!ped-up! | %8
!ped![I:staff -1] AF[I:staff +1]_EA, [B,D]2 (^F,2!ped-up! G,2 B,2) | %9
 (G,B,[I:staff -1]_D=E) (ED[I:staff +1]B,G,) (E,G,[I:staff -1]DE) | %10
[I:staff +1] (F,C[I:staff -1]_E>F) (FE[I:staff +1]CF,) (C,F,G,,B,) | %11
 (F,A,[I:staff -1]CF)[I:staff +1] F,G,[I:staff -1]B,>C (CB,[I:staff +1]E,C,) | %12
 (C,F,[I:staff -1]A,>C) (CA,"^rit."[I:staff +1]F,C,) (C,E,AB) |[K:Db] D,8 _C,4 | B,,8 A,,4 | %15
 G,,8 A,,4 | [D,,D,]4 z4 [A,,,A,,]4 | [D,,D,]4 [_C,,_C,]4 [B,,,B,,]4 | (E,2 B,,2 =B,,2 C,2) D,4 | %19
 D,4- D,2 D,2 B,,3 D, | [A,,D,F,]4 [A,,C,E,]4 (3[G,,E,]2 [G,,E,]2 [G,,E,]2 | %21
 (3[F,,D,]2 [F,,D,]2 [F,,D,]2 (3[F,,D,]2 [F,,D,]2 [F,,D,]2 (3[E,,A,,]2 [E,,A,,]2 [E,,A,,]2 | %22
 (3[E,,A,,]2 [E,,A,,]2 [E,,A,,]2 (3[E,,A,,]2 [E,,A,,]2 [E,,A,,]2 (3[_C,D,A,]2 [C,D,A,]2 [C,D,A,]2 | %23
 (3[B,,D,G,]2 [B,,D,G,]2 [B,,D,G,]2 (3[B,,D,G,]2 [B,,D,G,]2 [B,,D,G,]2 (3[A,,D,]2 [A,,D,]2 [A,,D,]2 | %24
"^rit." (3[F,,D,]2 [F,,D,]2 [F,,D,]2 (3[F,,D,]2 [F,,D,]2 [F,,D,]2 (3G,2 G,2 G,2 | %25
[K:F] (G,B,[I:staff -1]C>E) EC[I:staff +1]B,G, (G,B,[I:staff -1]A,G) | %26
[I:staff +1] (G,B,[I:staff -1]C>G) GC[I:staff +1]A,G, (F,A,[I:staff -1]CF) | %27
[I:staff +1] (F,G,[I:staff -1]=B,>D) (DB,[I:staff +1]G,"^rit."F,) (F,G,[I:staff -1]FB,) | %28
!ped![I:staff +1] ([C,E,]B,[I:staff -1]_B,>C) (CB,[I:staff +1]G,C,)!>(! (!arpeggio!C,A,[I:staff -1]C!>)!F)!ped-up! | %29
!ped![I:staff +1] (C,F,A,>C) (CA,F,C,)!ped-up!!ped! (C,F,C,F,)!ped-up! | %30
!ped! (C,F,A,>C) (CA,F,C,)!ped-up!!ped! (C,F,C,A,)!ped-up! | %31
!ped! (F,B,D>F) (FF,EF, D!ped-up!F,CF,) | (F,B,[I:staff -1]_D>G) (GE[I:staff +1]B,F,) E,G, z2 | %33
 (F,A,[I:staff -1]CF) (FC[I:staff +1]A,F,)!ped![I:staff -1] (EC[I:staff +1]B,E,)!ped-up! | %34
!ped![I:staff -1] (EA,[I:staff +1]CE,)[I:staff -1] (F!ped-up!C[I:staff +1]A,F,) F,A, z2 | %35
 (G,B,[I:staff -1]D>G) (GD[I:staff +1]B,G,)!>(!!ped![I:staff -1] (^FD[I:staff +1]C!>)!^F,)!ped-up! | %36
!ped![I:staff -1] (^FD[I:staff +1]C^F,)!ped-up! [G,B,]2 (.[^F,,A,]2 .[G,,B,]2 .[B,,_D,G,]2) | %37
 (.[C,F,A,]2 .[C,-_A,]2) [C,G,]4 [C,,C,]4 | %38
 (C,F,[I:staff -1]A,>C) (CA,[I:staff +1]F,C,) (C,F,[I:staff -1]A,C) | %39
[I:staff +1] (=B,,F,[I:staff -1]_A,=B,)[I:staff +1] (_B,,F,[I:staff -1]G,_B,)[I:staff +1] (B,,E,[I:staff -1]B,C) | %40
[I:staff +1] (A,,F,[I:staff -1]A,C) (CA,[I:staff +1]F,C,) (A,,F,[I:staff -1]A,C) | %41
[I:staff +1] (_A,,E,[I:staff -1]_A,=B,)[I:staff +1] (B,,F,[I:staff -1]G,_B,)[I:staff +1] (E,,E,[I:staff -1]B,C) | %42
[I:staff +1] (A,,F,[I:staff -1]A,C) (CA,[I:staff +1]F,C,) (A,,F,[I:staff -1]A,C) | %43
[I:staff +1] F,,2 z2 [C,F,C]2 z2 z4 |] %44
V:4
 F,,8 F,,4 | F,,8 F,,4 | F,,8 F,,4 | B,,8 z4 | B,,8 [B,,C,]4 | [A,,C,]8 G,,4 | %6
 F,,2 z2 F,2 z2 [_E,F,]4 | [D,F,]8 C,4 | B,,2 z2 z2 B,,4 B,,2 | B,,8 B,,4 | A,,8 C,2 G,,2 | %11
 C,4 C,8 | F,,8 G,,4 |[K:Db] D,,12 | D,,12 | D,,12 | x12 | x12 | E,,8 F,,4 | G,,8 =G,,4 | x12 | %21
 x12 | x12 | x12 | x12 |[K:F] C,8 C,4 | [C,G,]8 C,4 | C,8 F,,4 | C,8 !arpeggio![F,,C,]4 | %29
 F,,8 F,,4 | F,,8 F,,4 | B,,8 z4 | B,,8 [B,,C,]4 | [A,,C,]8 C,4 | F,,2 z2 F,2 z2 [C,D,]4 | %35
 [B,,D,]8 A,,4 | G,,2 z2 x8 | x12 | F,,8 E,,4 | D,,4 _D,,4 C,,4 | F,,8 [E,,A,,]4 | %41
 D,,4 _D,,4 C,,4 | F,,8 [E,,A,,]4 | x12 |] %44
V:5
 x12 | x12 | x12 | x12 | x12 | x12 | x8 A,2 z2 | x12 | x12 | x12 | x12 | x12 | x12 |[K:Db] x12 | %14
 x12 | x12 | x12 | x12 | x12 | x12 | x12 | x12 | x12 | x12 | x12 |[K:F] x12 | x12 | x12 | x12 | %29
 x12 | x12 | x12 | x12 | x12 | x12 | x12 | x12 | x12 | x12 | x12 | x12 | x4 B,,3 F,, E,,3 z | x12 | %43
 x12 |] %44
V:6
 x12 | x12 | x12 | x12 | x12 | x12 | x12 | x12 | x12 | x12 | x8 FDB_D | x12 | x12 |[K:Db] x12 | %14
 x12 | x12 | x12 | x12 | x12 | x12 | (3[A,D]2 [A,D]2 [A,D]2 (3[A,C]2 [A,C]2 [A,C]2 x4 | x12 | x12 | %23
 x12 | x12 |[K:F] x12 | x12 | x12 | x12 | x12 | x12 | x12 | x12 | x12 | x8 ^FD x2 | x12 | x12 | %37
 x4 [_B,C]8 | x12 | x12 | x12 | x12 | x12 | x12 |] %44

